X:539
T:Dha Phort
R:Polka
O:Ireland
D:Show the Ladies- pretty different vsn, but the same tune... -mdl
S:Unknown Childrens Gaelic tape
Z:Transcription, chords:Mike Long
M:2/4
L:1/8
K:D
"D"D>E FD|BA FD|"A"E2 cE|"G"{c}BA Fd|\
"D"D>E FD|BA FD|"A"E>F "G"GC|"D"{F}ED D2:|
|:"D"d> {D}d cB|cd DF/A/|"A"BE cE|"G"{c}BA FA|\
"D"d> {D}d cB|cd DF/A/|"G"BE "A"cE|"D"{F}ED D2:|
